src/assets/images/logo.svg

<svg enable-background="new 0 0 269 51" viewBox="0 0 269 51" xmlns="http://www.w3.org/2000/svg"><path d="m242.3 0c-.2 0-.4 0-.5 0h-217.6c-13.4.1-24.1 11-24 24.3.1 13.2 10.8 23.9 24 24h217.5.5c13.3 0 24.1-10.8 24.1-24.1.1-13.4-10.7-24.2-24-24.2z" fill="#c1022d" transform="translate(1.254 1.369)"/><g fill="#fff"><path d="m243.5 51h-219.4c-14.1-1-24.8-13.1-23.8-27.2.8-12.7 11-22.9 23.8-23.8h1.4 218.9c14.1.6 25 12.5 24.4 26.6-.6 13.5-11.7 24.3-25.3 24.4zm-1.9-2.8h1.6.3c12.6-.1 22.7-10.4 22.5-23-.1-12.4-10.1-22.4-22.5-22.5h-.3-.3-1.4-215.6-.4c-12.6.2-22.7 10.5-22.5 23.1.2 12.3 10.1 22.3 22.5 22.5h.7z"/><path d="m21.6 17.4c-.1.5-.6.9-1.1.9h-3.8c-.5.1-1-.3-1.1-.9l-2.2-10.6c-.2-1.1-.4-2.7-.5-4.1-.1 1.4-.2 2.8-.5 4.1l-2.4 10.6c-.1.5-.6.9-1.1.9h-3.6c-.5 0-1-.3-1.1-.9l-3.9-16.3c-.2-.7.1-1.1.6-1.1h2.9c.5 0 1 .4 1.1.9l1.8 10.7c.2.9.4 3.2.5 4.2.2-.9.3-3.2.6-4.2l2.4-10.8c.1-.4.6-.8 1.1-.8h3.4c.5 0 1 .4 1.1.9l2.4 10.8c.2.9.5 3.2.6 4.2.1-.9.3-3.3.5-4.2l1.9-10.7c.1-.6.5-1 1-1h2.4c.5 0 .9.5.7 1.2z" transform="translate(23.76 18.861)"/><path d="m7.7 18.7c-4.9 0-7.5-3.5-7.5-9.4 0-5.7 2.7-9.3 7.5-9.3s7.5 3.6 7.5 9.3-2.6 9.4-7.5 9.4m0-15.1c-1.8 0-3.1 1.4-3.1 5.7 0 4.4 1.4 5.7 3.1 5.7s3.2-1.3 3.2-5.7c0-4.3-1.4-5.7-3.2-5.7z" transform="translate(49.63 18.636)"/><path d="m7.7 18.7c-4.9 0-7.5-3.5-7.5-9.4 0-5.7 2.7-9.3 7.5-9.3s7.5 3.6 7.5 9.3-2.6 9.4-7.5 9.4m0-15.1c-1.8 0-3.1 1.4-3.1 5.7 0 4.4 1.4 5.7 3.1 5.7s3.2-1.3 3.2-5.7c0-4.3-1.4-5.7-3.2-5.7z" transform="translate(66.452 18.636)"/><path d="m13.8 26.7h-1.7c-.6 0-1.1-.4-1.2-.9l-.3-1.4c-.8 1.6-2.5 2.6-4.3 2.6-3.4 0-6.1-2-6.1-9.5 0-3.2.5-5.7 2.1-7.5 1-1.1 2.4-1.7 3.9-1.7 1.7 0 3.2.8 4.1 2.1v-9.5c0-.5.4-.9.9-.9h2.5c.5 0 .9.4.9.9v24.9c.1.5-.3.9-.8.9zm-6.1-14.8c-.8-.1-1.7.4-2.1 1.1-.6 1.4-.9 3-.8 4.6 0 4.2 1.1 5.5 3 5.5 1.8 0 2.8-1.6 2.8-5.5-.1-4-1.1-5.7-2.9-5.7" transform="translate(83.164 10.426)"/><path d="m7.3 26.5c-1 .3-2 .5-3 .5-3 0-4.1-1.6-4.1-4.3v-21.8c0-.5.4-.9.9-.9h2.5c.5 0 .9.4.9.9v20.6c0 1 .1 1.5.8 1.5.4 0 .8-.1 1.2-.2.6-.1.9.1 1 .6l.3 2c.2.5-.1.9-.5 1.1" transform="translate(100.213 10.426)"/><path d="m13.6 18.5h-2.2c-.6 0-.9-.3-1-.9l-.2-1.2c-1.2 1.6-3.2 2.5-5.2 2.3-3.3 0-4.9-2.2-4.9-5.7s2-5.6 6.1-5.9l3.4-.3v-.6c0-1.7-.6-2.4-2.8-2.4-1.1-.1-2.4.2-3.6.5-.4.2-.9 0-1.1-.4 0-.1 0-.1-.1-.2l-.4-1.8c-.2-.4 0-.9.4-1.1.1 0 .1 0 .2-.1 1.6-.4 3.3-.7 4.9-.7 6.6 0 6.9 4.2 6.9 7.4v6.2c0 1 0 2 .1 2.9l.2 1.1c.1.4-.1.8-.4.9 0 0-.2 0-.3 0m-3.9-8.7-2 .1c-2 .1-3.2.8-3.2 3.1-.1 1 .6 2 1.6 2.1h.3c1.7.1 3.1-1.2 3.3-2.8z" transform="translate(108.6 18.637)"/><path d="m13 18.5h-2.5c-.5 0-.9-.4-.9-.9v-12c0-1.2-.5-2-1.8-2-1.8 0-3.2 1.7-3.2 4v9.9c0 .5-.4.9-.9.9h-2.5c-.5 0-1-.4-1-.9v-16.3c0-.5.4-1 1-.9h1.8c.5 0 .9.3 1 .8l.3 1.4c1.2-1.6 3.1-2.5 5-2.5 2.4-.1 4.5 1.7 4.6 4.1v.6 12.9c.1.5-.3.9-.9.9z" transform="translate(125.042 18.628)"/><path d="m13.8 26.7h-1.7c-.6 0-1.1-.4-1.2-.9l-.3-1.4c-.8 1.6-2.5 2.6-4.3 2.6-3.4 0-6.1-2-6.1-9.5 0-3.2.5-5.7 2.1-7.5 1-1.1 2.4-1.7 3.9-1.7 1.7 0 3.2.8 4.1 2.1v-9.5c0-.5.4-.9.9-.9h2.5c.5 0 .9.4.9.9v24.9c.1.5-.3.9-.8.9zm-6.1-14.8c-.8-.1-1.7.4-2.1 1.1-.6 1.4-.9 3-.8 4.6 0 4.2 1.1 5.5 3 5.5 1.8 0 2.8-1.6 2.8-5.5-.1-4-1.1-5.7-2.9-5.7z" transform="translate(140.619 10.426)"/><path d="m6.3 18.7c-4.1 0-3.9-.5-5.5-1.1-.5-.1-.7-.6-.6-1.1l.6-1.8c.3-.6.6-.9 1.2-.7 1.3.6 2.7.9 4.1 1 1.4 0 2-.6 2-1.6 0-1.4-1.7-2.3-3.5-3.2-1.9-1.1-3.9-2.4-3.9-5 0-3 2.1-5.2 5.9-5.2 1.5-.1 3 .2 4.4.8.5.1.8.6.7 1.1l-.5 1.5c-.1.5-.6.8-1 .7h-.1c-1-.4-2-.7-3.1-.8-1.2 0-1.8.8-1.8 1.7 0 1.1 1.5 1.8 3.1 2.7 2 1.1 4.3 2.6 4.3 5.5-.1 2.8-4.1 5.5-6.3 5.5" transform="translate(156.821 18.624)"/><path d="m11.9 18.2c-1.3.4-2.6.6-3.9.6-4.8 0-7.8-3.1-7.8-9.6 0-5.3 2.9-9.2 8.1-9.2 1.1 0 2.3.2 3.4.6.6.3.8.7.6 1.1l-.6 1.8c-.1.4-.5.7-1 .6h-.1c-.6-.2-1.3-.4-2-.4-2.4 0-3.8 1.8-3.8 5.4 0 4 1.2 5.7 4 5.7.8 0 1.6-.1 2.4-.3.4-.2.8 0 1 .3 0 .1.1.2.1.3l.4 1.9c0 .5-.3 1-.8 1.2z" transform="translate(176.661 18.636)"/><path d="m7.7 18.7c-4.9 0-7.5-3.5-7.5-9.4 0-5.7 2.7-9.3 7.5-9.3s7.5 3.6 7.5 9.3-2.6 9.4-7.5 9.4m0-15.1c-1.8 0-3.1 1.4-3.1 5.7 0 4.4 1.4 5.7 3.1 5.7s3.2-1.3 3.2-5.7c0-4.3-1.4-5.7-3.2-5.7z" transform="translate(189.444 18.636)"/><path d="m3 5.6c-1.6 0-2.8-1.3-2.8-2.8 0-1.6 1.3-2.8 2.8-2.8 1.6 0 2.8 1.3 2.8 2.8.1 1.6-1.2 2.8-2.8 2.8z" transform="translate(205.254 31.739)"/><path d="m3 5.6c-1.6 0-2.8-1.3-2.8-2.8 0-1.6 1.3-2.8 2.8-2.8 1.6 0 2.8 1.3 2.8 2.8.1 1.6-1.2 2.8-2.8 2.8z" transform="translate(170.452 31.739)"/><path d="m13.3 18.3h-1.8c-.5 0-.9-.4-.9-.8l-.3-1.4c-1.3 1.5-3.2 2.4-5.3 2.4-2.4.2-4.5-1.7-4.7-4.1 0-.2 0-.4 0-.6v-12.9c-.1-.5.3-.9.8-.9h2.5c.5 0 .9.4.9.9v12.1c-.1.9.6 1.8 1.5 1.9h.4c1.9 0 3.4-1.7 3.4-4.3v-9.7c0-.5.4-.9.9-.9h2.5c.5 0 .9.4.9.9v16.4c.2.6-.2 1-.8 1z" transform="translate(212.867 18.86)"/><path d="m13.9 26.7h-3.5c-.6 0-1.1-.3-1.3-.9l-4.6-8.4v8.4c0 .5-.4.9-.9.9h-2.4c-.5 0-.9-.4-.9-.9v-24.9c-.1-.5.3-.9.8-.9h2.5c.5 0 .9.4.9.9v14.8l4-6.5c.3-.5.8-.8 1.3-.8h3.2c.4 0 .6.3.6.6 0 .2-.1.3-.2.4l-4.9 6.7 5.8 9.4c.2.3.2.7-.1 1 0 .2-.2.2-.3.2" transform="translate(229.814 10.426)"/></g></svg>

<?xml version="1.0" encoding="utf-8"?>
<!-- Generator: Adobe Illustrator 24.1.3, SVG Export Plug-In . SVG Version: 6.00 Build 0)  -->
<svg version="1.1" id="Layer_1" xmlns="http://www.w3.org/2000/svg" xmlns:xlink="http://www.w3.org/1999/xlink" x="0px" y="0px"
	 viewBox="0 0 269 51" style="enable-background:new 0 0 269 51;" xml:space="preserve">
<style type="text/css">
	.st0{fill:#C1022D;}
	.st1{fill:#FFFFFF;}
</style>
<g>
	<g id="Group_3188">
		<g id="Group_3171" transform="translate(1.254 1.369)">
			<path id="Path_403" class="st0" d="M242.3,0c-0.2,0-0.4,0-0.5,0v0H24.2v0C10.8,0.1,0.1,11,0.2,24.3c0.1,13.2,10.8,23.9,24,24v0
				h217.5v0c0.2,0,0.4,0,0.5,0c13.3,0,24.1-10.8,24.1-24.1c0,0,0,0,0,0C266.4,10.8,255.6,0,242.3,0C242.3,0,242.3,0,242.3,0"/>
		</g>
		<g id="Group_3172" transform="translate(0 0)">
			<path id="Path_404" class="st1" d="M243.5,51H24.1V51C10,50-0.7,37.9,0.3,23.8C1.1,11.1,11.3,0.9,24.1,0V0l1.4,0h218.9v0
				c14.1,0.6,25,12.5,24.4,26.6C268.2,40.1,257.1,50.9,243.5,51L243.5,51z M241.6,48.2l1.6,0c0.1,0,0.2,0,0.3,0
				c12.6-0.1,22.7-10.4,22.5-23c0,0,0,0,0,0c-0.1-12.4-10.1-22.4-22.5-22.5h-0.3l-0.3,0l-1.4,0v0H25.9l-0.4,0
				C12.9,2.9,2.8,13.2,3,25.8c0.2,12.3,10.1,22.3,22.5,22.5l0.7,0L241.6,48.2L241.6,48.2z"/>
		</g>
		<g id="Group_3173" transform="translate(23.76 18.861)">
			<path id="Path_405" class="st1" d="M21.6,17.4c-0.1,0.5-0.6,0.9-1.1,0.9h-3.8c-0.5,0.1-1-0.3-1.1-0.9L13.4,6.8
				c-0.2-1.1-0.4-2.7-0.5-4.1c-0.1,1.4-0.2,2.8-0.5,4.1L10,17.4c-0.1,0.5-0.6,0.9-1.1,0.9H5.3c-0.5,0-1-0.3-1.1-0.9L0.3,1.1
				C0.1,0.4,0.4,0,0.9,0h2.9c0.5,0,1,0.4,1.1,0.9l1.8,10.7c0.2,0.9,0.4,3.2,0.5,4.2c0.2-0.9,0.3-3.2,0.6-4.2l2.4-10.8
				C10.3,0.4,10.8,0,11.3,0h3.4c0.5,0,1,0.4,1.1,0.9l2.4,10.8c0.2,0.9,0.5,3.2,0.6,4.2c0.1-0.9,0.3-3.3,0.5-4.2l1.9-10.7
				C21.3,0.4,21.7,0,22.2,0h2.4c0.5,0,0.9,0.5,0.7,1.2L21.6,17.4z"/>
		</g>
		<g id="Group_3174" transform="translate(49.63 18.636)">
			<path id="Path_406" class="st1" d="M7.7,18.7c-4.9,0-7.5-3.5-7.5-9.4C0.2,3.6,2.9,0,7.7,0s7.5,3.6,7.5,9.3S12.6,18.7,7.7,18.7
				 M7.7,3.6C5.9,3.6,4.6,5,4.6,9.3c0,4.4,1.4,5.7,3.1,5.7s3.2-1.3,3.2-5.7C10.9,5,9.5,3.6,7.7,3.6L7.7,3.6z"/>
		</g>
		<g id="Group_3175" transform="translate(66.452 18.636)">
			<path id="Path_407" class="st1" d="M7.7,18.7c-4.9,0-7.5-3.5-7.5-9.4C0.2,3.6,2.9,0,7.7,0s7.5,3.6,7.5,9.3S12.6,18.7,7.7,18.7
				 M7.7,3.6C5.9,3.6,4.6,5,4.6,9.3c0,4.4,1.4,5.7,3.1,5.7s3.2-1.3,3.2-5.7C10.9,5,9.5,3.6,7.7,3.6L7.7,3.6z"/>
		</g>
		<g id="Group_3176" transform="translate(83.164 10.426)">
			<path id="Path_408" class="st1" d="M13.8,26.7h-1.7c-0.6,0-1.1-0.4-1.2-0.9l-0.3-1.4c-0.8,1.6-2.5,2.6-4.3,2.6
				c-3.4,0-6.1-2-6.1-9.5c0-3.2,0.5-5.7,2.1-7.5c1-1.1,2.4-1.7,3.9-1.7c1.7,0,3.2,0.8,4.1,2.1V0.9c0-0.5,0.4-0.9,0.9-0.9
				c0,0,0,0,0,0h2.5c0.5,0,0.9,0.4,0.9,0.9c0,0,0,0,0,0c0,0,0,0,0,0v24.9C14.7,26.3,14.3,26.7,13.8,26.7
				C13.8,26.7,13.8,26.7,13.8,26.7L13.8,26.7 M7.7,11.9C6.9,11.8,6,12.3,5.6,13c-0.6,1.4-0.9,3-0.8,4.6c0,4.2,1.1,5.5,3,5.5
				c1.8,0,2.8-1.6,2.8-5.5C10.5,13.6,9.5,11.9,7.7,11.9"/>
		</g>
		<g id="Group_3177" transform="translate(100.213 10.426)">
			<path id="Path_409" class="st1" d="M7.3,26.5c-1,0.3-2,0.5-3,0.5c-3,0-4.1-1.6-4.1-4.3V0.9C0.2,0.4,0.6,0,1.1,0c0,0,0,0,0,0h2.5
				c0.5,0,0.9,0.4,0.9,0.9c0,0,0,0,0,0c0,0,0,0,0,0v20.6c0,1,0.1,1.5,0.8,1.5c0.4,0,0.8-0.1,1.2-0.2c0.6-0.1,0.9,0.1,1,0.6l0.3,2
				C8,25.9,7.7,26.3,7.3,26.5"/>
		</g>
		<g id="Group_3178" transform="translate(108.6 18.637)">
			<path id="Path_410" class="st1" d="M13.6,18.5h-2.2c-0.6,0-0.9-0.3-1-0.9l-0.2-1.2c-1.2,1.6-3.2,2.5-5.2,2.3
				c-3.3,0-4.9-2.2-4.9-5.7c0-3.5,2-5.6,6.1-5.9l3.4-0.3V6.2c0-1.7-0.6-2.4-2.8-2.4C5.7,3.7,4.4,4,3.2,4.3c-0.4,0.2-0.9,0-1.1-0.4
				c0-0.1,0-0.1-0.1-0.2L1.6,1.9C1.4,1.5,1.6,1,2,0.8c0.1,0,0.1,0,0.2-0.1C3.8,0.3,5.5,0,7.1,0c6.6,0,6.9,4.2,6.9,7.4v6.2
				c0,1,0,2,0.1,2.9l0.2,1.1c0.1,0.4-0.1,0.8-0.4,0.9C13.9,18.5,13.7,18.5,13.6,18.5 M9.7,9.8l-2,0.1c-2,0.1-3.2,0.8-3.2,3.1
				c-0.1,1,0.6,2,1.6,2.1c0.1,0,0.2,0,0.3,0c1.7,0.1,3.1-1.2,3.3-2.8L9.7,9.8z"/>
		</g>
		<g id="Group_3179" transform="translate(125.042 18.628)">
			<path id="Path_411" class="st1" d="M13,18.5h-2.5c-0.5,0-0.9-0.4-0.9-0.9c0,0,0,0,0,0v-12c0-1.2-0.5-2-1.8-2
				c-1.8,0-3.2,1.7-3.2,4v9.9c0,0.5-0.4,0.9-0.9,0.9c0,0,0,0,0,0H1.2c-0.5,0-1-0.4-1-0.9V1.2c0-0.5,0.4-1,1-0.9H3
				c0.5,0,0.9,0.3,1,0.8l0.3,1.4C5.5,0.9,7.4,0,9.3,0c2.4-0.1,4.5,1.7,4.6,4.1c0,0,0,0,0,0c0,0.2,0,0.4,0,0.6v12.9
				C14,18.1,13.6,18.5,13,18.5C13,18.5,13,18.5,13,18.5L13,18.5"/>
		</g>
		<g id="Group_3180" transform="translate(140.619 10.426)">
			<path id="Path_412" class="st1" d="M13.8,26.7h-1.7c-0.6,0-1.1-0.4-1.2-0.9l-0.3-1.4c-0.8,1.6-2.5,2.6-4.3,2.6
				c-3.4,0-6.1-2-6.1-9.5c0-3.2,0.5-5.7,2.1-7.5c1-1.1,2.4-1.7,3.9-1.7c1.7,0,3.2,0.8,4.1,2.1V0.9c0-0.5,0.4-0.9,0.9-0.9
				c0,0,0,0,0,0h2.5c0.5,0,0.9,0.4,0.9,0.9c0,0,0,0,0,0v24.9C14.7,26.3,14.3,26.7,13.8,26.7C13.8,26.7,13.8,26.7,13.8,26.7
				L13.8,26.7 M7.7,11.9C6.9,11.8,6,12.3,5.6,13c-0.6,1.4-0.9,3-0.8,4.6c0,4.2,1.1,5.5,3,5.5c1.8,0,2.8-1.6,2.8-5.5
				C10.5,13.6,9.5,11.9,7.7,11.9z"/>
		</g>
		<g id="Group_3181" transform="translate(156.821 18.624)">
			<path id="Path_413" class="st1" d="M6.3,18.7c-4.1,0-3.9-0.5-5.5-1.1c-0.5-0.1-0.7-0.6-0.6-1.1c0,0,0,0,0,0l0.6-1.8
				C1.1,14.1,1.4,13.8,2,14c1.3,0.6,2.7,0.9,4.1,1c1.4,0,2-0.6,2-1.6c0-1.4-1.7-2.3-3.5-3.2c-1.9-1.1-3.9-2.4-3.9-5
				c0-3,2.1-5.2,5.9-5.2c1.5-0.1,3,0.2,4.4,0.8c0.5,0.1,0.8,0.6,0.7,1.1c0,0,0,0,0,0l-0.5,1.5c-0.1,0.5-0.6,0.8-1,0.7
				c0,0-0.1,0-0.1,0c-1-0.4-2-0.7-3.1-0.8C5.8,3.3,5.2,4.1,5.2,5c0,1.1,1.5,1.8,3.1,2.7c2,1.1,4.3,2.6,4.3,5.5
				C12.5,16,8.5,18.7,6.3,18.7"/>
		</g>
		<g id="Group_3182" transform="translate(176.661 18.636)">
			<path id="Path_414" class="st1" d="M11.9,18.2c-1.3,0.4-2.6,0.6-3.9,0.6c-4.8,0-7.8-3.1-7.8-9.6C0.2,3.9,3.1,0,8.3,0
				c1.1,0,2.3,0.2,3.4,0.6c0.6,0.3,0.8,0.7,0.6,1.1l-0.6,1.8c-0.1,0.4-0.5,0.7-1,0.6c0,0,0,0,0,0c0,0-0.1,0-0.1,0
				c-0.6-0.2-1.3-0.4-2-0.4c-2.4,0-3.8,1.8-3.8,5.4c0,4,1.2,5.7,4,5.7c0.8,0,1.6-0.1,2.4-0.3c0.4-0.2,0.8,0,1,0.3
				c0,0.1,0.1,0.2,0.1,0.3l0.4,1.9C12.7,17.5,12.4,18,11.9,18.2C12,18.2,11.9,18.2,11.9,18.2"/>
		</g>
		<g id="Group_3183" transform="translate(189.444 18.636)">
			<path id="Path_415" class="st1" d="M7.7,18.7c-4.9,0-7.5-3.5-7.5-9.4C0.2,3.6,2.9,0,7.7,0s7.5,3.6,7.5,9.3S12.6,18.7,7.7,18.7
				 M7.7,3.6C5.9,3.6,4.6,5,4.6,9.3c0,4.4,1.4,5.7,3.1,5.7s3.2-1.3,3.2-5.7C10.9,5,9.5,3.6,7.7,3.6L7.7,3.6z"/>
		</g>
		<g id="Group_3184" transform="translate(205.254 31.739)">
			<path id="Path_416" class="st1" d="M3,5.6c-1.6,0-2.8-1.3-2.8-2.8l0,0C0.2,1.2,1.5,0,3,0c0,0,0,0,0,0c1.6,0,2.8,1.3,2.8,2.8l0,0
				C5.9,4.4,4.6,5.6,3,5.6C3,5.6,3,5.6,3,5.6"/>
		</g>
		<g id="Group_3185" transform="translate(170.452 31.739)">
			<path id="Path_417" class="st1" d="M3,5.6c-1.6,0-2.8-1.3-2.8-2.8c0,0,0,0,0,0C0.2,1.2,1.5,0,3,0c1.6,0,2.8,1.3,2.8,2.8
				c0,0,0,0,0,0C5.9,4.4,4.6,5.6,3,5.6L3,5.6"/>
		</g>
		<g id="Group_3186" transform="translate(212.867 18.86)">
			<path id="Path_418" class="st1" d="M13.3,18.3h-1.8c-0.5,0-0.9-0.4-0.9-0.8l-0.3-1.4c-1.3,1.5-3.2,2.4-5.3,2.4
				c-2.4,0.2-4.5-1.7-4.7-4.1c0-0.2,0-0.4,0-0.6V0.9C0.2,0.4,0.6,0,1.1,0c0,0,0,0,0,0h2.5c0.5,0,0.9,0.4,0.9,0.9c0,0,0,0,0,0V13
				c-0.1,0.9,0.6,1.8,1.5,1.9c0,0,0,0,0,0c0.1,0,0.3,0,0.4,0c1.9,0,3.4-1.7,3.4-4.3V0.9c0-0.5,0.4-0.9,0.9-0.9c0,0,0,0,0,0h2.5
				c0.5,0,0.9,0.4,0.9,0.9c0,0,0,0,0,0v16.4C14.3,17.9,13.9,18.3,13.3,18.3C13.3,18.3,13.3,18.3,13.3,18.3L13.3,18.3"/>
		</g>
		<g id="Group_3187" transform="translate(229.814 10.426)">
			<path id="Path_419" class="st1" d="M13.9,26.7h-3.5c-0.6,0-1.1-0.3-1.3-0.9l-4.6-8.4v8.4c0,0.5-0.4,0.9-0.9,0.9c0,0,0,0,0,0H1.2
				c-0.5,0-0.9-0.4-0.9-0.9c0,0,0,0,0,0V0.9C0.2,0.4,0.6,0,1.1,0h2.5c0.5,0,0.9,0.4,0.9,0.9c0,0,0,0,0,0v14.8l4-6.5
				c0.3-0.5,0.8-0.8,1.3-0.8h3.2c0.4,0,0.6,0.3,0.6,0.6c0,0,0,0,0,0c0,0.2-0.1,0.3-0.2,0.4l-4.9,6.7l5.8,9.4c0.2,0.3,0.2,0.7-0.1,1
				c0,0,0,0,0,0C14.2,26.7,14,26.7,13.9,26.7"/>
		</g>
	</g>
</g>
</svg>
